svgs/thin/comment-arrow-up.svg

<svg xmlns="http://www.w3.org/2000/svg" viewBox="0 0 512 512"><!--! Font Awesome Pro 6.3.0 by @fontawesome - https://fontawesome.com License - https://fontawesome.com/license (Commercial License) Copyright 2023 Fonticons, Inc. --><path d="M256 32C114.6 32 .0273 125.1 .0273 240c0 49.59 21.38 95.03 56.97 130.7c-12.5 50.39-54.27 95.27-54.77 95.77c-2.188 2.297-2.781 5.734-1.5 8.734C2.041 478.2 4.813 480 8 480c66.31 0 116-31.78 140.6-51.39C181.3 440.9 217.6 448 256 448C397.4 448 512 354.9 512 240S397.4 32 256 32zM256 432c-35.12 0-69.36-6.184-101.8-18.38L145.7 410.4l-7.105 5.666c-20.2 16.11-60.14 42.04-112.7 47.06c14.44-18.29 37.42-51.68 46.57-88.59l2.172-8.758l-6.371-6.391C34.1 325.1 16 283.8 16 240c0-105.9 107.7-192 240-192s240 86.13 240 192S388.3 432 256 432zM261.7 146.3C260.2 144.8 258.1 144 256 144S251.8 144.9 250.3 146.4C219.8 177.5 170.1 227.8 163.8 233.2C162.4 234.1 161.2 235.4 160.6 237.1c-1.625 4.094 .3906 8.75 4.5 10.38c.875 .3438 1.609 .6562 2.5 .6562c5.123 0 15.6-10.37 80.44-76.5V328c0 4.406 3.578 8 8 8s8-3.594 8-8V171.3l74.34 74.34c3.125 3.125 8.188 3.125 11.31 0s3.125-8.188 0-11.31L261.7 146.3z"/></svg>

<svg xmlns="http://www.w3.org/2000/svg" viewBox="0 0 512 512"><!-- Font Awesome Pro 6.0.0-alpha2 by @fontawesome - https://fontawesome.com License - https://fontawesome.com/license (Commercial License) --><path d="M256 32C114.594 32 0 125.094 0 240C0 289.594 21.406 335 57 370.703C44.5 421.094 2.688 466 2.188 466.5C0 468.797 -0.594 472.203 0.688 475.203C1.999 478.203 4.812 480 8 480C74.312 480 124 448.203 148.594 428.594C181.312 440.906 217.594 448 256 448C397.406 448 512 354.906 512 240S397.406 32 256 32ZM256 432C220.879 432 186.641 425.816 154.23 413.619L145.723 410.418L138.617 416.084C118.418 432.189 78.477 458.119 25.957 463.143C40.395 444.848 63.375 411.461 72.531 374.555L74.703 365.797L68.332 359.406C34.098 325.066 16 283.775 16 240C16 134.131 123.664 48 256 48S496 134.131 496 240S388.336 432 256 432ZM261.656 146.344C260.156 144.844 258.125 144 256 144H255.953C253.828 144 251.781 144.875 250.281 146.406C219.828 177.469 170.109 227.812 163.812 233.188C162.391 234.062 161.219 235.375 160.562 237.062C158.938 241.156 160.953 245.812 165.062 247.438C165.938 247.781 166.672 248.094 167.562 248.094C172.686 248.094 183.162 237.729 248 171.596V328C248 332.406 251.578 336 256 336S264 332.406 264 328V171.312L338.344 245.656C341.469 248.781 346.531 248.781 349.656 245.656S352.781 237.469 349.656 234.344L261.656 146.344Z"/></svg>
